X: 3739
T: Bird In The Bush, The
R: reel
M: 4/4
K: Gmajor
|:d2eB dB~B2|dBAB GAAG|EA~A2 BG~G2|BGBd eage|
d2eB dB~B2|dBAB ~G2GE|DEGA B2eB|dBAc BG~G2:|
|:(3Bcd ef g2fg|af~f2 gfed|Bdef ~g3b|agab g3a|
bg~g2 agef|~g3e dBGE|DEGA B2eB|dBAc BGG2:|

